X: 178
M: C|
L: 1/8
K: G
|:\
d4 Tc4 | B2d2 B2G2 | A2c2 A2F2 | G2Bc d2g2 |\
d4 Tc4 | B2d2 B2G2 | A2c2 A2F2 | G4 G,4 :|
|:\
d4 Tc4 | B2d2 g2e2 | {e}d2cB {d}c2BA | G4 G,4 :|

